X: 3034
T: Minuet
%R: minuet, waltz
B: Henry Playford "Apollo's Banquet", London 1687 (5th Edition)
F: https://archive.org/details/apollosbanquetco01rugg
Z: 2017 John Chambers <jc:trillian.mit.edu>
M: 3/4
L: 1/8
K: Dm
% - - - - - - - - - -
a2 g2 |\
f2 g2 a2 | d2 e2 f2 | e2 ^c2 (=B^c) | d2 e2 f2 |\
e2 f2 g2 | c2 f2 g2 | a2 g4 | f2 :: A2 B2 |\
c2 A2 d2 | B2 G2 c2 | A2 d4 | ^c3 d e2 |
fe dc =BA | e3 f d2 | c2 =B4 | A2 !segno!y a2 e2 |\
f2 (^f3e/^f/) | g2 a2 b2 | a2 gf ed | ^c2 d2 e2 |\
f2 g2 a2 | (g3 f/g/) a2 | d2 e2 ^c2 | Hd2 |]
% - - - - - - - - - -

%%sep 1 1 500
%%sep 1 1 500

